svg/misc/timeslots.svg

<svg width="544" height="512" viewBox="0 0 544 512" version="1.1" xmlns="http://www.w3.org/2000/svg"><path fill="currentColor" d="M128,480l-96,0c-17.673,0 -32,-14.327 -32,-32l0,-64c0,-17.673 14.327,-32 32,-32l96,0c17.673,0 32,14.327 32,32l0,64c0,17.636 -14.267,31.939 -32,32Zm192,0l-96,0c-17.673,0 -32,-14.327 -32,-32l0,-64c0,-17.673 14.327,-32 32,-32l96,0c17.673,0 32,14.327 32,32l0,64c0,17.636 -14.267,31.939 -32,32Zm192,0l-96,0c-17.673,0 -32,-14.327 -32,-32l0,-64c0,-17.673 14.327,-32 32,-32l96,0c17.673,0 32,14.327 32,32l0,64c0,17.636 -14.267,31.939 -32,32Zm-384,-32l0,-64l-96,0l0,64l96,0Zm384,0l0,-64l-96,0l0,64l96,0Zm-384,-128l-96,0c-17.673,0 -32,-14.327 -32,-32l0,-64c0,-17.654 14.297,-31.97 32,-32l96,0c17.703,0.03 32,14.346 32,32l0,64c0,17.654 -14.297,31.97 -32,32Zm192,0l-96,0c-17.673,0 -32,-14.327 -32,-32l0,-64c0,-17.654 14.297,-31.97 32,-32l96,0c17.703,0.03 32,14.346 32,32l0,64c0,17.654 -14.297,31.97 -32,32Zm192,0l-96,0c-17.673,0 -32,-14.327 -32,-32l0,-64c0,-17.673 14.327,-32 32,-32l96,0c17.673,0 32,14.327 32,32l0,64c0,17.636 -14.267,31.939 -32,32Zm-384,-96l-96,0l0,64l96,0l0,-64Zm0,-64l-96,0c-17.673,0 -32,-14.327 -32,-32l0,-64c0,-17.673 14.327,-32 32,-32l96,0c17.673,0 32,14.327 32,32l0,64c0,17.636 -14.267,31.939 -32,32Zm192,0l-96,0c-17.673,0 -32,-14.327 -32,-32l0,-64c0,-17.673 14.327,-32 32,-32l96,0c17.673,0 32,14.327 32,32l0,64c0,17.636 -14.267,31.939 -32,32Zm192,0l-96,0c-17.673,0 -32,-14.327 -32,-32l0,-64c0,-17.654 14.297,-31.97 32,-32l96,0c17.703,0.03 32,14.346 32,32l0,64c0,17.654 -14.297,31.97 -32,32Z"></path></svg>

<svg width="544" height="512" viewBox="0 0 544 512" fill="none" xmlns="http://www.w3.org/2000/svg">
<path d="M0 64C0 46.3269 14.3269 32 32 32H128C145.673 32 160 46.3269 160 64V128C160 145.673 145.673 160 128 160H32C14.3269 160 0 145.673 0 128V64Z" fill="black"/>
<path fill-rule="evenodd" clip-rule="evenodd" d="M32 192C14.3269 192 0 206.327 0 224V288C0 305.673 14.3269 320 32 320H128C145.673 320 160 305.673 160 288V224C160 206.327 145.673 192 128 192H32ZM128 224H32L32 288H128V224Z" fill="black"/>
<path fill-rule="evenodd" clip-rule="evenodd" d="M0 384C0 366.327 14.3269 352 32 352H128C145.673 352 160 366.327 160 384V448C160 465.673 145.673 480 128 480H32C14.3269 480 0 465.673 0 448V384ZM32 384H128V448H32L32 384Z" fill="black"/>
<path d="M192 64C192 46.3269 206.327 32 224 32H320C337.673 32 352 46.3269 352 64V128C352 145.673 337.673 160 320 160H224C206.327 160 192 145.673 192 128V64Z" fill="black"/>
<path d="M224 192C206.327 192 192 206.327 192 224V288C192 305.673 206.327 320 224 320H320C337.673 320 352 305.673 352 288V224C352 206.327 337.673 192 320 192H224Z" fill="black"/>
<path d="M192 384C192 366.327 206.327 352 224 352H320C337.673 352 352 366.327 352 384V448C352 465.673 337.673 480 320 480H224C206.327 480 192 465.673 192 448V384Z" fill="black"/>
<path d="M416 32C398.327 32 384 46.3269 384 64V128C384 145.673 398.327 160 416 160H512C529.673 160 544 145.673 544 128V64C544 46.3269 529.673 32 512 32H416Z" fill="black"/>
<path d="M384 224C384 206.327 398.327 192 416 192H512C529.673 192 544 206.327 544 224V288C544 305.673 529.673 320 512 320H416C398.327 320 384 305.673 384 288V224Z" fill="black"/>
<path fill-rule="evenodd" clip-rule="evenodd" d="M384 384C384 366.327 398.327 352 416 352H512C529.673 352 544 366.327 544 384V448C544 465.673 529.673 480 512 480H416C398.327 480 384 465.673 384 448V384ZM416 384H512V448H416V384Z" fill="black"/>
</svg>
